!!! OTL: Literature76
!!! Chapter: 5
!!! Section: II
!!! Page: 361
!!! Mode: 
!!! Encoder: ESM
**kern
*staff1
*I"Piano
=1-
*clefG2
*k[f#]
*G:
*met(c)
*M4/4
4r
8r
8d/
4b\
8b\L
8b\J
=2
8b/L
8a/
8a/
8a/J
bq/
8a/L
8g/
8a/
8b/J
=3
4g/
8d/L
8d/J
8d/L
8b/
8b/
8b/J
=4
8b/L
8a/
8a/
8a/J
bq/
8a/L
8g/
8a/
8b/J
=5
4g/
8dd/L
8d/J
8d/L
8b/
8b/
8b/J
=6
!!linebreak:original
8b/L
8a/
8a/
8a/J
bq/
8a/L
8g/
8a/
8b/J
=7
4.g/
8b\
4.e/
8cc\
=8
8a\L
8ee\
8cc\
8a\J
8f#/L
8g/
8a/
8b/J
=9
4.g/
8b\
4.e/
8cc\
=10
8a\L
8ee\
8cc\
8a\J
8f#/L
8g/
8a/
8b/J
=11
4g/
4r
2r
==
*-
